assets/arrow-up-fill.svg

<svg xmlns="http://www.w3.org/2000/svg" fill="none" viewBox="0 0 28 28">
  <mask id="a" fill="#fff">
    <path fill-rule="evenodd" d="M28 14c0-7.73199-6.268-14-14-14C6.26801 0 0 6.26801 0 14c0 7.732 6.26801 14 14 14 7.732 0 14-6.268 14-14ZM13.4697 3.46967l-4.773 4.77297c-.29289.29289-.29289.76777 0 1.06066s.76777.29289 1.06066 0L13.25 5.81066V24c0 .4142.3358.75.75.75s.75-.3358.75-.75V5.81066l3.4926 3.49264c.2929.29289.7678.29289 1.0607 0 .2929-.29289.2929-.76777 0-1.06066l-4.773-4.77297c-.2929-.29289-.7677-.29289-1.0606 0Z" clip-rule="evenodd"/>
  </mask>
  <path fill="#2A2238" fill-rule="evenodd" d="M28 14c0-7.73199-6.268-14-14-14C6.26801 0 0 6.26801 0 14c0 7.732 6.26801 14 14 14 7.732 0 14-6.268 14-14ZM13.4697 3.46967l-4.773 4.77297c-.29289.29289-.29289.76777 0 1.06066s.76777.29289 1.06066 0L13.25 5.81066V24c0 .4142.3358.75.75.75s.75-.3358.75-.75V5.81066l3.4926 3.49264c.2929.29289.7678.29289 1.0607 0 .2929-.29289.2929-.76777 0-1.06066l-4.773-4.77297c-.2929-.29289-.7677-.29289-1.0606 0Z" clip-rule="evenodd"/>
  <path fill="#2A2238" d="M9.75736 9.3033 10.818 10.364 9.75736 9.3033ZM13.25 5.81066h1.5V2.18934L12.1893 4.75 13.25 5.81066Zm1.5 0L15.8107 4.75 13.25 2.18934v3.62132h1.5Zm3.4926 3.49264 1.0607-1.06066-1.0607 1.06066Zm1.0607-1.06066L18.2426 9.3033l1.0607-1.06066ZM14 1.5c6.9036 0 12.5 5.59644 12.5 12.5h3c0-8.56041-6.9396-15.5-15.5-15.5v3ZM1.5 14C1.5 7.09644 7.09644 1.5 14 1.5v-3C5.43959-1.5-1.5 5.43959-1.5 14h3ZM14 26.5C7.09644 26.5 1.5 20.9036 1.5 14h-3c0 8.5604 6.93959 15.5 15.5 15.5v-3ZM26.5 14c0 6.9036-5.5964 12.5-12.5 12.5v3c8.5604 0 15.5-6.9396 15.5-15.5h-3ZM9.75736 9.3033l4.77294-4.77297-2.1213-2.12132-4.77296 4.77297L9.75736 9.3033Zm0-1.06066c.29294.29289.29294.76777 0 1.06066L7.63604 7.18198c-.87868.87868-.87868 2.3033 0 3.18202l2.12132-2.12136Zm-1.06066 0c.29289-.29289.76777-.29289 1.06066 0L7.63604 10.364c.87868.8786 2.3033.8786 3.18196 0L8.6967 8.24264ZM12.1893 4.75 8.6967 8.24264 10.818 10.364l3.4927-3.49268L12.1893 4.75ZM14.75 24V5.81066h-3V24h3Zm-.75-.75c.4142 0 .75.3358.75.75h-3c0 1.2426 1.0074 2.25 2.25 2.25v-3Zm-.75.75c0-.4142.3358-.75.75-.75v3c1.2426 0 2.25-1.0074 2.25-2.25h-3Zm0-18.18934V24h3V5.81066h-3Zm6.0533 2.43198L15.8107 4.75l-2.1214 2.12132L17.182 10.364l2.1213-2.12136Zm-1.0607 0c.2929-.29289.7678-.29289 1.0607 0L17.182 10.364c.8787.8786 2.3033.8786 3.182 0l-2.1214-2.12136Zm0 1.06066c-.2929-.29289-.2929-.76777 0-1.06066L20.364 10.364c.8786-.87872.8786-2.30334 0-3.18202L18.2426 9.3033Zm-4.7729-4.77297 4.7729 4.77297 2.1214-2.12132-4.773-4.77297-2.1213 2.12132Zm1.0606 0c-.2929.29289-.7677.29289-1.0606 0l2.1213-2.12132c-.8787-.87868-2.3033-.87868-3.182 0l2.1213 2.12132Z" mask="url(#a)"/>
</svg>

<svg width="28" height="28" viewBox="0 0 28 28" fill="none" xmlns="http://www.w3.org/2000/svg">
<mask id="path-1-inside-1_11_272" fill="white">
<path fill-rule="evenodd" clip-rule="evenodd" d="M28 14C28 6.26801 21.732 0 14 0C6.26801 0 0 6.26801 0 14C0 21.732 6.26801 28 14 28C21.732 28 28 21.732 28 14ZM13.4697 3.46967L8.6967 8.24264C8.40381 8.53553 8.40381 9.01041 8.6967 9.3033C8.98959 9.59619 9.46447 9.59619 9.75736 9.3033L13.25 5.81066V24C13.25 24.4142 13.5858 24.75 14 24.75C14.4142 24.75 14.75 24.4142 14.75 24V5.81066L18.2426 9.3033C18.5355 9.59619 19.0104 9.59619 19.3033 9.3033C19.5962 9.01041 19.5962 8.53553 19.3033 8.24264L14.5303 3.46967C14.2374 3.17678 13.7626 3.17678 13.4697 3.46967Z"/>
</mask>
<path fill-rule="evenodd" clip-rule="evenodd" d="M28 14C28 6.26801 21.732 0 14 0C6.26801 0 0 6.26801 0 14C0 21.732 6.26801 28 14 28C21.732 28 28 21.732 28 14ZM13.4697 3.46967L8.6967 8.24264C8.40381 8.53553 8.40381 9.01041 8.6967 9.3033C8.98959 9.59619 9.46447 9.59619 9.75736 9.3033L13.25 5.81066V24C13.25 24.4142 13.5858 24.75 14 24.75C14.4142 24.75 14.75 24.4142 14.75 24V5.81066L18.2426 9.3033C18.5355 9.59619 19.0104 9.59619 19.3033 9.3033C19.5962 9.01041 19.5962 8.53553 19.3033 8.24264L14.5303 3.46967C14.2374 3.17678 13.7626 3.17678 13.4697 3.46967Z" fill="#2A2238"/>
<path d="M9.75736 9.3033L10.818 10.364L10.818 10.364L9.75736 9.3033ZM13.25 5.81066H14.75V2.18934L12.1893 4.75L13.25 5.81066ZM14.75 5.81066L15.8107 4.75L13.25 2.18934V5.81066H14.75ZM18.2426 9.3033L19.3033 8.24264L19.3033 8.24264L18.2426 9.3033ZM19.3033 8.24264L18.2426 9.3033L18.2426 9.3033L19.3033 8.24264ZM14 1.5C20.9036 1.5 26.5 7.09644 26.5 14H29.5C29.5 5.43959 22.5604 -1.5 14 -1.5V1.5ZM1.5 14C1.5 7.09644 7.09644 1.5 14 1.5V-1.5C5.43959 -1.5 -1.5 5.43959 -1.5 14H1.5ZM14 26.5C7.09644 26.5 1.5 20.9036 1.5 14H-1.5C-1.5 22.5604 5.43959 29.5 14 29.5V26.5ZM26.5 14C26.5 20.9036 20.9036 26.5 14 26.5V29.5C22.5604 29.5 29.5 22.5604 29.5 14H26.5ZM9.75736 9.3033L14.5303 4.53033L12.409 2.40901L7.63604 7.18198L9.75736 9.3033ZM9.75736 8.24264C10.0503 8.53553 10.0503 9.01041 9.75736 9.3033L7.63604 7.18198C6.75736 8.06066 6.75736 9.48528 7.63604 10.364L9.75736 8.24264ZM8.6967 8.24264C8.98959 7.94975 9.46447 7.94975 9.75736 8.24264L7.63604 10.364C8.51472 11.2426 9.93934 11.2426 10.818 10.364L8.6967 8.24264ZM12.1893 4.75L8.6967 8.24264L10.818 10.364L14.3107 6.87132L12.1893 4.75ZM14.75 24V5.81066H11.75V24H14.75ZM14 23.25C14.4142 23.25 14.75 23.5858 14.75 24H11.75C11.75 25.2426 12.7574 26.25 14 26.25V23.25ZM13.25 24C13.25 23.5858 13.5858 23.25 14 23.25V26.25C15.2426 26.25 16.25 25.2426 16.25 24H13.25ZM13.25 5.81066V24H16.25V5.81066H13.25ZM19.3033 8.24264L15.8107 4.75L13.6893 6.87132L17.182 10.364L19.3033 8.24264ZM18.2426 8.24264C18.5355 7.94975 19.0104 7.94975 19.3033 8.24264L17.182 10.364C18.0607 11.2426 19.4853 11.2426 20.364 10.364L18.2426 8.24264ZM18.2426 9.3033C17.9497 9.01041 17.9497 8.53553 18.2426 8.24264L20.364 10.364C21.2426 9.48528 21.2426 8.06066 20.364 7.18198L18.2426 9.3033ZM13.4697 4.53033L18.2426 9.3033L20.364 7.18198L15.591 2.40901L13.4697 4.53033ZM14.5303 4.53033C14.2374 4.82322 13.7626 4.82322 13.4697 4.53033L15.591 2.40901C14.7123 1.53033 13.2877 1.53033 12.409 2.40901L14.5303 4.53033Z" fill="#2A2238" mask="url(#path-1-inside-1_11_272)"/>
</svg>
